src/assets/1m+commits.svg

<svg width="74" height="95" viewBox="0 0 74 95" fill="none" xmlns="http://www.w3.org/2000/svg">
<g clip-path="url(#clip0_117_2)">
<path d="M14.6001 71.1H11.6001V23.5H14.6001V33.9C14.6001 42.9 21.9001 50.2 30.9001 50.2H48.5001V53.2H30.9001C24.0001 53.2 18.0001 49.6 14.6001 44.2V71.1Z" fill="#8E8E9A"/>
<path d="M19.5001 12.7H16.5001C16.5001 10 14.3001 7.80005 11.6001 7.80005V4.80005C16.0001 4.80005 19.5001 8.30005 19.5001 12.7Z" fill="#5F38FA"/>
<path d="M20.6002 82.3H17.6002C17.6002 79.6 15.4002 77.4 12.7002 77.4V74.4C17.0002 74.4 20.6002 77.9 20.6002 82.3Z" fill="#5F38FA"/>
<path d="M12.7 25.4C5.7 25.4 0 19.7 0 12.7C0 5.7 5.7 0 12.7 0C19.7 0 25.4 5.7 25.4 12.7C25.4 19.7 19.7 25.4 12.7 25.4ZM12.7 3C7.3 3 3 7.3 3 12.7C3 18 7.3 22.4 12.7 22.4C18.1 22.4 22.4 18.1 22.4 12.7C22.4 7.3 18 3 12.7 3Z" fill="#8E8E9A"/>
<path d="M68.1002 51.8001H65.1002C65.1002 49.1001 62.9002 46.9001 60.2002 46.9001V43.9001C64.5002 43.9001 68.1002 47.4001 68.1002 51.8001Z" fill="#5F38FA"/>
<path d="M60.7 64.0001C53.7 64.0001 48 58.3001 48 51.3001C48 44.3001 53.7 38.6001 60.7 38.6001C67.7 38.6001 73.4 44.3001 73.4 51.3001C73.4 58.3001 67.7 64.0001 60.7 64.0001ZM60.7 41.6001C55.4 41.6001 51 45.9001 51 51.3001C51 56.6001 55.3 61.0001 60.7 61.0001C66 61.0001 70.4 56.7001 70.4 51.3001C70.4 45.9001 66 41.6001 60.7 41.6001Z" fill="#8E8E9A"/>
<path d="M13.0999 95C6.0999 95 0.399902 89.3 0.399902 82.3C0.399902 75.3 6.0999 69.6 13.0999 69.6C20.0999 69.6 25.7999 75.3 25.7999 82.3C25.7999 89.3 20.0999 95 13.0999 95ZM13.0999 72.6C7.7999 72.6 3.3999 76.9 3.3999 82.3C3.3999 87.7 7.7999 92 13.0999 92C18.3999 92 22.7999 87.7 22.7999 82.3C22.7999 76.9 18.3999 72.6 13.0999 72.6Z" fill="#8E8E9A"/>
</g>
<defs>
<clipPath id="clip0_117_2">
<rect width="73.4" height="95" fill="white"/>
</clipPath>
</defs>
</svg>

<?xml version="1.0" encoding="utf-8"?>
<!-- Generator: Adobe Illustrator 26.0.3, SVG Export Plug-In . SVG Version: 6.00 Build 0)  -->
<svg version="1.1" id="Layer_1" xmlns="http://www.w3.org/2000/svg" xmlns:xlink="http://www.w3.org/1999/xlink" x="0px" y="0px"
	 viewBox="0 0 73.4 95" style="enable-background:new 0 0 73.4 95;" xml:space="preserve">
<style type="text/css">
	.st0{fill:#8E8E9A;}
	.st1{fill:#5F38FA;}
</style>
<g>
	<path class="st0" d="M14.6,71.1h-3V23.5h3v10.4c0,9,7.3,16.3,16.3,16.3h17.6v3H30.9c-6.9,0-12.9-3.6-16.3-9V71.1z"/>
	<path class="st1" d="M19.5,12.7h-3c0-2.7-2.2-4.9-4.9-4.9v-3C16,4.8,19.5,8.3,19.5,12.7z"/>
	<path class="st1" d="M20.6,82.3h-3c0-2.7-2.2-4.9-4.9-4.9v-3C17,74.4,20.6,77.9,20.6,82.3z"/>
	<path class="st0" d="M12.7,25.4C5.7,25.4,0,19.7,0,12.7S5.7,0,12.7,0s12.7,5.7,12.7,12.7S19.7,25.4,12.7,25.4z M12.7,3
		C7.3,3,3,7.3,3,12.7c0,5.3,4.3,9.7,9.7,9.7s9.7-4.3,9.7-9.7S18,3,12.7,3z"/>
	<g>
		<path class="st1" d="M68.1,51.8h-3c0-2.7-2.2-4.9-4.9-4.9v-3C64.5,43.9,68.1,47.4,68.1,51.8z"/>
		<path class="st0" d="M60.7,64c-7,0-12.7-5.7-12.7-12.7s5.7-12.7,12.7-12.7s12.7,5.7,12.7,12.7S67.7,64,60.7,64z M60.7,41.6
			c-5.3,0-9.7,4.3-9.7,9.7c0,5.3,4.3,9.7,9.7,9.7c5.3,0,9.7-4.3,9.7-9.7S66,41.6,60.7,41.6z"/>
	</g>
	<path class="st0" d="M13.1,95c-7,0-12.7-5.7-12.7-12.7s5.7-12.7,12.7-12.7s12.7,5.7,12.7,12.7S20.1,95,13.1,95z M13.1,72.6
		c-5.3,0-9.7,4.3-9.7,9.7S7.8,92,13.1,92s9.7-4.3,9.7-9.7S18.4,72.6,13.1,72.6z"/>
</g>
</svg>
